icons/svg/spinner_18.svg

<svg width="18" height="18" viewBox="0 0 18 18" xmlns="http://www.w3.org/2000/svg" xmlns:xlink="http://www.w3.org/1999/xlink"><title>animated/spinner_18</title><defs><path id="a" d="M9 0h9v9H9z"/></defs><g fill="none" fill-rule="evenodd"><path d="M9 17c4.418198 0 8-3.581802 8-8 0-4.41819801-3.581802-8-8-8-4.41819801 0-8 3.58180199-8 8 0 4.418198 3.58180199 8 8 8zm0 1c-4.97048276 0-9-4.0295172-9-9 0-4.97048276 4.02951724-9 9-9 4.9704828 0 9 4.02951724 9 9 0 4.9704828-4.0295172 9-9 9z" fill-opacity=".12" fill="#000" fill-rule="nonzero"/><mask id="b" fill="#fff"><use xlink:href="#a"/></mask><path d="M9 17c4.418198 0 8-3.581802 8-8 0-4.41819801-3.581802-8-8-8-4.41819801 0-8 3.58180199-8 8 0 4.418198 3.58180199 8 8 8zm0 1c-4.97048276 0-9-4.0295172-9-9 0-4.97048276 4.02951724-9 9-9 4.9704828 0 9 4.02951724 9 9 0 4.9704828-4.0295172 9-9 9z" fill="#000" fill-rule="nonzero" mask="url(#b)"/></g></svg>

<?xml version="1.0" encoding="UTF-8"?>
<svg width="18px" height="18px" viewBox="0 0 18 18" version="1.1" xmlns="http://www.w3.org/2000/svg" xmlns:xlink="http://www.w3.org/1999/xlink">
    <!-- Generator: Sketch 60.1 (88133) - https://sketch.com -->
    <title>animated/spinner_18</title>
    <desc>Created with Sketch.</desc>
    <g id="animated/spinner_18" stroke="none" stroke-width="1" fill="none" fill-rule="evenodd">
        <path d="M9,0 C13.9704828,0 18,4.02951724 18,9 C18,13.9704828 13.9704828,18 9,18 C4.02951724,18 0,13.9704828 0,9 C0,4.02951724 4.02951724,0 9,0 Z M9,1 C4.58180199,1 1,4.58180199 1,9 C1,13.418198 4.58180199,17 9,17 C13.418198,17 17,13.418198 17,9 C17,4.58180199 13.418198,1 9,1 Z" id="4/4" fill="#E6E8E8"></path>
        <path d="M9,0 C13.8818027,0 17.8557914,3.88681368 17.9961629,8.73463775 L18,9 L17,9 C17,4.66508574 13.5521622,1.13545713 9.24917933,1.00380682 L9,1 L9,0 Z" id="1/4" fill="#171B1F"></path>
    </g>
</svg>
